assets/imgs/web.svg

<svg width="15" height="16" viewBox="0 0 15 16" fill="none" xmlns="http://www.w3.org/2000/svg">
<path d="M5.48888 1.73427C6.48814 3.18356 7.36059 4.69363 8.10587 6.24927M8.10587 6.24927C9.66228 5.57082 11.1203 4.5953 12.394 3.32193M8.10587 6.24927C8.49462 7.0606 8.84873 7.88437 9.16815 8.71831M10.7052 14.0039C10.4811 12.9 10.2007 11.8054 9.86407 10.7246M14.3361 8.64583C12.5782 8.26135 10.8166 8.30716 9.16815 8.71831M9.16815 8.71831C6.71073 9.33126 4.50489 10.7562 2.9383 12.7781M2.9383 12.7781C5.54958 15.3893 9.78263 15.3893 12.394 12.778C15.0052 10.1668 15.0052 5.93315 12.394 3.32193M2.9383 12.7781C0.327001 10.1669 0.326333 5.93317 2.93763 3.32196C5.54893 0.710732 9.7827 0.710705 12.394 3.32193M1.02072 7.33381C2.56832 7.49789 4.13787 7.40529 5.66002 7.05538" stroke="white" stroke-width="1.00297" stroke-linecap="round" stroke-linejoin="round"/>
</svg>

<svg xmlns="http://www.w3.org/2000/svg" width="15" height="16" fill="none"><path stroke="#fff" stroke-linecap="round" stroke-linejoin="round" stroke-width="1.003" d="M5.489 1.734c1 1.45 1.872 2.96 2.617 4.515m0 0a13.9 13.9 0 0 0 4.288-2.927M8.106 6.249q.584 1.218 1.062 2.47m1.537 5.285a33 33 0 0 0-.84-3.28m4.471-2.078a11.3 11.3 0 0 0-5.168.072m0 0a11.37 11.37 0 0 0-6.23 4.06m0 0a6.686 6.686 0 1 0 9.456-9.456m-9.456 9.456a6.686 6.686 0 1 1 9.456-9.456M1.021 7.334c1.547.164 3.117.071 4.639-.279"/></svg>
